assets/light-off.svg

<?xml version="1.0" encoding="UTF-8" standalone="no" ?>
<!DOCTYPE svg PUBLIC "-//W3C//DTD SVG 1.1//EN" "http://www.w3.org/Graphics/SVG/1.1/DTD/svg11.dtd">
<svg xmlns="http://www.w3.org/2000/svg" xmlns:xlink="http://www.w3.org/1999/xlink" version="1.1" width="401" height="480" viewBox="0 0 401 480" xml:space="preserve">
<desc>Created with Fabric.js 4.2.0</desc>
<defs>
</defs>
<rect x="0" y="0" width="100%" height="100%" fill="transparent"></rect>
<g transform="matrix(1 0 0 1 200.5 240)" id="cc459428-adf3-457e-99c7-8bf3c3422e42"  >
<rect style="stroke: none; stroke-width: 1; stroke-dasharray: none; stroke-linecap: butt; stroke-dashoffset: 0; stroke-linejoin: miter; stroke-miterlimit: 4; fill: rgb(255,255,255); fill-opacity: 0; fill-rule: nonzero; opacity: 1;" vector-effect="non-scaling-stroke"  x="-200.5" y="-240" rx="0" ry="0" width="401" height="480" />
</g>
<g transform="matrix(0 0 0 0 0 0)" id="69130abc-3f3a-4644-ab60-16394f15269f"  >
</g>
<g transform="matrix(1 0 0 1 200.7 416.6)"  >
<path style="stroke: none; stroke-width: 1; stroke-dasharray: none; stroke-linecap: butt; stroke-dashoffset: 0; stroke-linejoin: miter; stroke-miterlimit: 4; fill: rgb(27,27,27); fill-rule: nonzero; opacity: 1;" vector-effect="non-scaling-stroke"  transform=" translate(-240.51, -417.6)" d="M 300.712 417.6 C 300.712 423.6 295.912 428.40000000000003 289.912 428.40000000000003 L 191.11199999999997 428.40000000000003 C 185.11199999999997 428.40000000000003 180.31199999999995 423.6 180.31199999999995 417.6 L 180.31199999999995 417.6 C 180.31199999999995 411.6 185.11199999999997 406.8 191.11199999999997 406.8 L 289.51199999999994 406.8 C 295.512 406.8 300.712 411.6 300.712 417.6 L 300.712 417.6 z" stroke-linecap="round" />
</g>
<g transform="matrix(1 0 0 1 200.7 416.6)"  >
<path style="stroke: none; stroke-width: 1; stroke-dasharray: none; stroke-linecap: butt; stroke-dashoffset: 0; stroke-linejoin: miter; stroke-miterlimit: 4; fill: rgb(255,255,255); fill-rule: nonzero; opacity: 1;" vector-effect="non-scaling-stroke"  transform=" translate(-240.51, -417.6)" d="M 308.312 417.6 C 308.312 407.20000000000005 299.91200000000003 399.20000000000005 289.91200000000003 399.20000000000005 L 191.11200000000002 399.20000000000005 C 180.71200000000002 399.20000000000005 172.71200000000002 407.6 172.71200000000002 417.6 C 172.71200000000002 428 181.11200000000002 436 191.11200000000002 436 L 289.51200000000006 436 C 299.912 436 308.312 428 308.312 417.6 z M 289.512 420.8 L 191.112 420.8 C 189.112 420.8 187.912 419.2 187.912 417.6 C 187.912 415.6 189.512 414.40000000000003 191.112 414.40000000000003 L 289.512 414.40000000000003 C 291.512 414.40000000000003 292.712 416.00000000000006 292.712 417.6 C 293.112 419.6 291.512 420.8 289.512 420.8 z" stroke-linecap="round" />
</g>
<g transform="matrix(1 0 0 1 200.7 461.4)"  >
<path style="stroke: none; stroke-width: 1; stroke-dasharray: none; stroke-linecap: butt; stroke-dashoffset: 0; stroke-linejoin: miter; stroke-miterlimit: 4; fill: rgb(27,27,27); fill-rule: nonzero; opacity: 1;" vector-effect="non-scaling-stroke"  transform=" translate(-240.51, -462.4)" d="M 285.912 462.4 C 285.912 468.4 281.11199999999997 473.2 275.11199999999997 473.2 L 205.91199999999998 473.2 C 199.91199999999998 473.2 195.11199999999997 468.4 195.11199999999997 462.4 L 195.11199999999997 462.4 C 195.11199999999997 456.4 199.91199999999998 451.59999999999997 205.91199999999998 451.59999999999997 L 275.11199999999997 451.59999999999997 C 281.112 451.6 285.912 456.4 285.912 462.4 L 285.912 462.4 z" stroke-linecap="round" />
</g>
<g transform="matrix(1 0 0 1 200.7 461.4)"  >
<path style="stroke: none; stroke-width: 1; stroke-dasharray: none; stroke-linecap: butt; stroke-dashoffset: 0; stroke-linejoin: miter; stroke-miterlimit: 4; fill: rgb(255,255,255); fill-rule: nonzero; opacity: 1;" vector-effect="non-scaling-stroke"  transform=" translate(-240.51, -462.4)" d="M 275.112 444 L 205.91200000000003 444 C 195.51200000000003 444 187.51200000000003 452.4 187.51200000000003 462.4 C 187.51200000000003 472.79999999999995 195.91200000000003 480.79999999999995 205.91200000000003 480.79999999999995 L 275.112 480.79999999999995 C 285.512 480.79999999999995 293.512 472.4 293.512 462.4 C 293.512 452.4 285.112 444 275.112 444 z M 275.112 465.6 L 205.91200000000003 465.6 C 203.91200000000003 465.6 202.71200000000005 464 202.71200000000005 462.40000000000003 C 202.71200000000005 460.40000000000003 204.31200000000004 459.20000000000005 205.91200000000003 459.20000000000005 L 275.112 459.20000000000005 C 277.112 459.20000000000005 278.312 460.80000000000007 278.312 462.40000000000003 C 278.312 464.4 277.112 465.6 275.112 465.6 z" stroke-linecap="round" />
</g>
<g transform="matrix(1 0 0 1 200.5 245.4)"  >
<path style="stroke: none; stroke-width: 1; stroke-dasharray: none; stroke-linecap: butt; stroke-dashoffset: 0; stroke-linejoin: miter; stroke-miterlimit: 4; fill: rgb(0,0,0); fill-rule: nonzero; opacity: 1;" vector-effect="non-scaling-stroke"  transform=" translate(-240.31, -246.4)" d="M 317.112 314.4 C 294.71200000000005 336.79999999999995 297.512 382 297.512 382 L 183.912 382 C 183.912 382 186.312 336.8 164.312 314.4 C 139.912 292.79999999999995 124.31200000000001 261.59999999999997 124.31200000000001 226.79999999999998 C 124.31200000000001 162.79999999999998 176.312 110.79999999999998 240.312 110.79999999999998 C 304.312 110.79999999999998 356.312 162.79999999999998 356.312 226.79999999999998 C 356.312 261.6 341.112 292.8 317.112 314.4 L 317.112 314.4 z" stroke-linecap="round" />
</g>
<g transform="matrix(1 0 0 1 200.5 245.2)"  >
<path style="stroke: none; stroke-width: 1; stroke-dasharray: none; stroke-linecap: butt; stroke-dashoffset: 0; stroke-linejoin: miter; stroke-miterlimit: 4; fill: rgb(255,255,255); fill-rule: nonzero; opacity: 1;" vector-effect="non-scaling-stroke"  transform=" translate(-240.31, -246.2)" d="M 323.112 318.4 C 349.112 294.79999999999995 363.91200000000003 261.59999999999997 363.91200000000003 226.79999999999998 C 363.91200000000003 158.79999999999998 308.312 103.19999999999999 240.31200000000004 103.19999999999999 C 172.31200000000007 103.19999999999999 116.71200000000005 158.79999999999998 116.71200000000005 226.79999999999998 C 116.71200000000005 262.4 132.31200000000004 296.4 158.71200000000005 319.59999999999997 C 178.31200000000004 339.2 176.31200000000004 380.79999999999995 176.31200000000004 381.2 C 176.31200000000004 383.2 177.11200000000005 385.2 178.31200000000004 386.8 C 179.91200000000003 388.40000000000003 181.91200000000003 389.2 183.91200000000003 389.2 L 297.112 389.2 C 299.112 389.2 301.112 388.4 302.71200000000005 386.8 C 304.31200000000007 385.20000000000005 304.71200000000005 383.2 304.71200000000005 381.2 C 304.71200000000005 380.8 302.71200000000005 339.2 322.31200000000007 319.59999999999997 C 322.712 319.2 323.112 318.8 323.112 318.4 z M 311.912 308.4 C 311.11199999999997 308.79999999999995 310.712 309.59999999999997 310.31199999999995 310.4 C 292.71199999999993 329.2 289.912 360 289.51199999999994 374.4 L 191.51199999999994 374.4 C 191.11199999999994 359.59999999999997 187.91199999999995 327.59999999999997 169.11199999999994 308.79999999999995 C 145.51199999999994 287.99999999999994 131.91199999999992 258.4 131.91199999999992 227.19999999999996 C 131.91199999999992 167.19999999999996 180.71199999999993 118.79999999999995 240.31199999999993 118.79999999999995 C 300.3119999999999 118.79999999999995 348.71199999999993 167.59999999999997 348.71199999999993 227.19999999999996 C 348.712 258 335.512 288 311.912 308.4 z" stroke-linecap="round" />
</g>
<g transform="matrix(1 0 0 1 244.9 186.2)"  >
<path style="stroke: none; stroke-width: 1; stroke-dasharray: none; stroke-linecap: butt; stroke-dashoffset: 0; stroke-linejoin: miter; stroke-miterlimit: 4; fill: rgb(27,27,27); fill-rule: nonzero; opacity: 1;" vector-effect="non-scaling-stroke"  transform=" translate(-284.71, -187.2)" d="M 240.312 135.2 C 236.312 135.2 232.71200000000002 138.39999999999998 232.71200000000002 142.79999999999998 C 232.71200000000002 146.79999999999998 235.912 150.39999999999998 240.312 150.39999999999998 C 285.112 150.39999999999998 321.512 186.79999999999998 321.512 231.59999999999997 C 321.512 235.59999999999997 324.712 239.19999999999996 329.112 239.19999999999996 C 333.112 239.19999999999996 336.71200000000005 235.99999999999997 336.71200000000005 231.59999999999997 C 336.712 178.4 293.512 135.2 240.312 135.2 z" stroke-linecap="round" />
</g>
</svg>

<?xml version="1.0" encoding="UTF-8" standalone="no" ?>
<!DOCTYPE svg PUBLIC "-//W3C//DTD SVG 1.1//EN" "http://www.w3.org/Graphics/SVG/1.1/DTD/svg11.dtd">
<svg xmlns="http://www.w3.org/2000/svg" xmlns:xlink="http://www.w3.org/1999/xlink" version="1.1" width="401" height="480" viewBox="0 0 401 480" xml:space="preserve">
<desc>Created with Fabric.js 3.6.3</desc>
<defs>
</defs>
<g transform="matrix(1 0 0 1 200.31 246.4)"  >
<path style="stroke: none; stroke-width: 1; stroke-dasharray: none; stroke-linecap: butt; stroke-dashoffset: 0; stroke-linejoin: miter; stroke-miterlimit: 4; fill: rgb(0,0,0); fill-rule: nonzero; opacity: 1;"  transform=" translate(-240.31, -246.4)" d="M 317.112 314.4 c -22.4 22.4 -19.6 67.6 -19.6 67.6 h -113.6 c 0 0 2.4 -45.2 -19.6 -67.6 c -24.4 -21.6 -40 -52.8 -40 -87.6 c 0 -64 52 -116 116 -116 s 116 52 116 116 C 356.312 261.6 341.112 292.8 317.112 314.4 L 317.112 314.4 z" stroke-linecap="round" />
</g>
<g transform="matrix(1 0 0 1 200.31 246.2)"  >
<path style="stroke: none; stroke-width: 1; stroke-dasharray: none; stroke-linecap: butt; stroke-dashoffset: 0; stroke-linejoin: miter; stroke-miterlimit: 4; fill: rgb(27,27,27); fill-rule: nonzero; opacity: 1;"  transform=" translate(-240.31, -246.2)" d="M 323.112 318.4 c 26 -23.6 40.8 -56.8 40.8 -91.6 c 0 -68 -55.6 -123.6 -123.6 -123.6 s -123.6 55.6 -123.6 123.6 c 0 35.6 15.6 69.6 42 92.8 c 19.6 19.6 17.6 61.2 17.6 61.6 c 0 2 0.8 4 2 5.6 c 1.6 1.6 3.6 2.4 5.6 2.4 h 113.2 c 2 0 4 -0.8 5.6 -2.4 s 2 -3.6 2 -5.6 c 0 -0.4 -2 -42 17.6 -61.6 C 322.712 319.2 323.112 318.8 323.112 318.4 z M 311.912 308.4 c -0.8 0.4 -1.2 1.2 -1.6 2 c -17.6 18.8 -20.4 49.6 -20.8 64 h -98 c -0.4 -14.8 -3.6 -46.8 -22.4 -65.6 c -23.6 -20.8 -37.2 -50.4 -37.2 -81.6 c 0 -60 48.8 -108.4 108.4 -108.4 c 60 0 108.4 48.8 108.4 108.4 C 348.712 258 335.512 288 311.912 308.4 z" stroke-linecap="round" />
</g>
<g transform="matrix(1 0 0 1 200.51 417.6)"  >
<path style="stroke: none; stroke-width: 1; stroke-dasharray: none; stroke-linecap: butt; stroke-dashoffset: 0; stroke-linejoin: miter; stroke-miterlimit: 4; fill: rgb(229,229,229); fill-rule: nonzero; opacity: 1;"  transform=" translate(-240.51, -417.6)" d="M 300.712 417.6 c 0 6 -4.8 10.8 -10.8 10.8 h -98.8 c -6 0 -10.8 -4.8 -10.8 -10.8 l 0 0 c 0 -6 4.8 -10.8 10.8 -10.8 h 98.4 C 295.512 406.8 300.712 411.6 300.712 417.6 L 300.712 417.6 z" stroke-linecap="round" />
</g>
<g transform="matrix(1 0 0 1 200.51 462.4)"  >
<path style="stroke: none; stroke-width: 1; stroke-dasharray: none; stroke-linecap: butt; stroke-dashoffset: 0; stroke-linejoin: miter; stroke-miterlimit: 4; fill: rgb(229,229,229); fill-rule: nonzero; opacity: 1;"  transform=" translate(-240.51, -462.4)" d="M 285.912 462.4 c 0 6 -4.8 10.8 -10.8 10.8 h -69.2 c -6 0 -10.8 -4.8 -10.8 -10.8 l 0 0 c 0 -6 4.8 -10.8 10.8 -10.8 h 69.2 C 281.112 451.6 285.912 456.4 285.912 462.4 L 285.912 462.4 z" stroke-linecap="round" />
</g>
<g transform="matrix(1 0 0 1 244.71 187.2)"  >
<path style="stroke: none; stroke-width: 1; stroke-dasharray: none; stroke-linecap: butt; stroke-dashoffset: 0; stroke-linejoin: miter; stroke-miterlimit: 4; fill: rgb(27,27,27); fill-rule: nonzero; opacity: 1;"  transform=" translate(-284.71, -187.2)" d="M 240.312 135.2 c -4 0 -7.6 3.2 -7.6 7.6 c 0 4 3.2 7.6 7.6 7.6 c 44.8 0 81.2 36.4 81.2 81.2 c 0 4 3.2 7.6 7.6 7.6 c 4 0 7.6 -3.2 7.6 -7.6 C 336.712 178.4 293.512 135.2 240.312 135.2 z" stroke-linecap="round" />
</g>
<g transform="matrix(1 0 0 1 200.51 417.6)"  >
<path style="stroke: none; stroke-width: 1; stroke-dasharray: none; stroke-linecap: butt; stroke-dashoffset: 0; stroke-linejoin: miter; stroke-miterlimit: 4; fill: rgb(27,27,27); fill-rule: nonzero; opacity: 1;"  transform=" translate(-240.51, -417.6)" d="M 308.312 417.6 c 0 -10.4 -8.4 -18.4 -18.4 -18.4 h -98.8 c -10.4 0 -18.4 8.4 -18.4 18.4 c 0 10.4 8.4 18.4 18.4 18.4 h 98.4 C 299.912 436 308.312 428 308.312 417.6 z M 289.512 420.8 h -98.4 c -2 0 -3.2 -1.6 -3.2 -3.2 c 0 -2 1.6 -3.2 3.2 -3.2 h 98.4 c 2 0 3.2 1.6 3.2 3.2 C 293.112 419.6 291.512 420.8 289.512 420.8 z" stroke-linecap="round" />
</g>
<g transform="matrix(1 0 0 1 200.51 462.4)"  >
<path style="stroke: none; stroke-width: 1; stroke-dasharray: none; stroke-linecap: butt; stroke-dashoffset: 0; stroke-linejoin: miter; stroke-miterlimit: 4; fill: rgb(27,27,27); fill-rule: nonzero; opacity: 1;"  transform=" translate(-240.51, -462.4)" d="M 275.112 444 h -69.2 c -10.4 0 -18.4 8.4 -18.4 18.4 c 0 10.4 8.4 18.4 18.4 18.4 h 69.2 c 10.4 0 18.4 -8.4 18.4 -18.4 C 293.512 452.4 285.112 444 275.112 444 z M 275.112 465.6 h -69.2 c -2 0 -3.2 -1.6 -3.2 -3.2 c 0 -2 1.6 -3.2 3.2 -3.2 h 69.2 c 2 0 3.2 1.6 3.2 3.2 C 278.312 464.4 277.112 465.6 275.112 465.6 z" stroke-linecap="round" />
</g>
</svg>
